communes/663.svg

<?xml version="1.0" encoding="UTF-8" standalone="no"?>
<svg
   xmlns:dc="http://purl.org/dc/elements/1.1/"
   xmlns:cc="http://creativecommons.org/ns#"
   xmlns:rdf="http://www.w3.org/1999/02/22-rdf-syntax-ns#"
   xmlns:svg="http://www.w3.org/2000/svg"
   xmlns="http://www.w3.org/2000/svg"
   xmlns:xlink="http://www.w3.org/1999/xlink"
   xmlns:sodipodi="http://sodipodi.sourceforge.net/DTD/sodipodi-0.dtd"
   xmlns:inkscape="http://www.inkscape.org/namespaces/inkscape"
   height="763"
   width="603"
   version="1.0"
   id="svg20"
   sodipodi:version="0.32"
   inkscape:version="0.46"
   sodipodi:docname="Frauenkappelen-coat of arms.svg"
   sodipodi:docbase="C:\Users\Camilo\Documents\Escudos de Suiza"
   inkscape:output_extension="org.inkscape.output.svg.inkscape">
  <metadata
     id="metadata31">
    <rdf:RDF>
      <cc:Work
         rdf:about="">
        <dc:format>image/svg+xml</dc:format>
        <dc:type
           rdf:resource="http://purl.org/dc/dcmitype/StillImage" />
        <dc:date>06-AUG-2009</dc:date>
        <dc:creator>
          <cc:Agent>
            <dc:title>Juan G (aliman5040)</dc:title>
          </cc:Agent>
        </dc:creator>
        <cc:license
           rdf:resource="http://creativecommons.org/licenses/GPL/2.0/" />
        <dc:coverage />
        <dc:description />
        <dc:subject>
          <rdf:Bag />
        </dc:subject>
        <dc:language />
        <dc:title>Wappen Gemeinde Frauenkappelen</dc:title>
      </cc:Work>
      <cc:License
         rdf:about="http://creativecommons.org/licenses/GPL/2.0/">
        <cc:permits
           rdf:resource="http://web.resource.org/cc/Reproduction" />
        <cc:permits
           rdf:resource="http://web.resource.org/cc/Distribution" />
        <cc:requires
           rdf:resource="http://web.resource.org/cc/Notice" />
        <cc:permits
           rdf:resource="http://web.resource.org/cc/DerivativeWorks" />
        <cc:requires
           rdf:resource="http://web.resource.org/cc/ShareAlike" />
        <cc:requires
           rdf:resource="http://web.resource.org/cc/SourceCode" />
      </cc:License>
    </rdf:RDF>
  </metadata>
  <defs
     id="defs29">
    <inkscape:perspective
       sodipodi:type="inkscape:persp3d"
       inkscape:vp_x="0 : 381.5 : 1"
       inkscape:vp_y="0 : 1000 : 0"
       inkscape:vp_z="603 : 381.5 : 1"
       inkscape:persp3d-origin="301.5 : 254.33333 : 1"
       id="perspective5149" />
    <linearGradient
       id="linearGradient2893">
      <stop
         style="stop-color:#ffffff;stop-opacity:0.3137255;"
         offset="0"
         id="stop2895" />
      <stop
         id="stop2897"
         offset="0.19"
         style="stop-color:#ffffff;stop-opacity:0.25098041;" />
      <stop
         style="stop-color:#6b6b6b;stop-opacity:0.1254902;"
         offset="0.60000002"
         id="stop2901" />
      <stop
         style="stop-color:#000000;stop-opacity:0.1254902;"
         offset="1"
         id="stop2899" />
    </linearGradient>
    <radialGradient
       inkscape:collect="always"
       xlink:href="#linearGradient2893"
       id="radialGradient3236"
       gradientUnits="userSpaceOnUse"
       gradientTransform="matrix(1.215027,1.531577e-24,1.464684e-23,1.266667,-839.1924,-490.4894)"
       cx="858.04236"
       cy="579.93323"
       fx="858.04236"
       fy="579.93323"
       r="300" />
    <inkscape:perspective
       id="perspective5197"
       inkscape:persp3d-origin="372.04724 : 350.78739 : 1"
       inkscape:vp_z="744.09448 : 526.18109 : 1"
       inkscape:vp_y="0 : 1000 : 0"
       inkscape:vp_x="0 : 526.18109 : 1"
       sodipodi:type="inkscape:persp3d" />
    <inkscape:perspective
       id="perspective2458"
       inkscape:persp3d-origin="372.04724 : 350.78739 : 1"
       inkscape:vp_z="744.09448 : 526.18109 : 1"
       inkscape:vp_y="0 : 1000 : 0"
       inkscape:vp_x="0 : 526.18109 : 1"
       sodipodi:type="inkscape:persp3d" />
    <inkscape:perspective
       id="perspective5829"
       inkscape:persp3d-origin="372.04724 : 350.78739 : 1"
       inkscape:vp_z="744.09448 : 526.18109 : 1"
       inkscape:vp_y="0 : 1000 : 0"
       inkscape:vp_x="0 : 526.18109 : 1"
       sodipodi:type="inkscape:persp3d" />
    <inkscape:perspective
       id="perspective5955"
       inkscape:persp3d-origin="372.04724 : 350.78739 : 1"
       inkscape:vp_z="744.09448 : 526.18109 : 1"
       inkscape:vp_y="0 : 1000 : 0"
       inkscape:vp_x="0 : 526.18109 : 1"
       sodipodi:type="inkscape:persp3d" />
    <inkscape:perspective
       id="perspective6107"
       inkscape:persp3d-origin="372.04724 : 350.78739 : 1"
       inkscape:vp_z="744.09448 : 526.18109 : 1"
       inkscape:vp_y="0 : 1000 : 0"
       inkscape:vp_x="0 : 526.18109 : 1"
       sodipodi:type="inkscape:persp3d" />
  </defs>
  <sodipodi:namedview
     inkscape:window-height="720"
     inkscape:window-width="1280"
     inkscape:pageshadow="2"
     inkscape:pageopacity="0.0"
     guidetolerance="10.0"
     gridtolerance="10.0"
     objecttolerance="10.0"
     borderopacity="1.0"
     bordercolor="#666666"
     pagecolor="#ffffff"
     id="base"
     inkscape:zoom="0.47183819"
     inkscape:cx="698.40935"
     inkscape:cy="295.61458"
     inkscape:window-x="-8"
     inkscape:window-y="-8"
     inkscape:current-layer="layer2"
     showgrid="true"
     showguides="true"
     inkscape:guide-bbox="true">
    <inkscape:grid
       type="xygrid"
       id="grid5151" />
  </sodipodi:namedview>
  <g
     inkscape:groupmode="layer"
     id="layer1"
     inkscape:label="Fond écu"
     style="display:inline"
     sodipodi:insensitive="true">
    <path
       id="path1899"
       d="M 1.5,1.49998 L 1.5,460.3679 C 1.5,626.6785 135.81456,761.5 301.49999,761.5 C 467.18543,761.5 601.5,626.6785 601.5,460.3679 L 601.5,1.49998 L 1.5,1.49998 z"
       style="fill:#2b5df2;fill-opacity:1" />
  </g>
  <g
     inkscape:groupmode="layer"
     id="layer2"
     inkscape:label="Meubles"
     style="display:inline"
     sodipodi:insensitive="true">
    <g
       id="g7084"
       transform="matrix(4.0931678,0,0,4.0931678,-2553.4846,-2332.2703)">
      <g
         id="g6213">
        <path
           sodipodi:type="arc"
           style="fill:#fcef3c;fill-opacity:1;fill-rule:evenodd;stroke:#000000;stroke-width:1;stroke-miterlimit:4;stroke-dasharray:none;stroke-opacity:1"
           id="path6147"
           sodipodi:cx="643"
           sodipodi:cy="629"
           sodipodi:rx="5"
           sodipodi:ry="4"
           d="M 648,629 A 5,4 0 1 1 638,629 A 5,4 0 1 1 648,629 z"
           transform="matrix(1.0531972,0.3174518,-0.3174518,1.0531972,164.2054,-238.16981)" />
        <path
           transform="matrix(-1.7924784e-2,1.0998539,1.0998539,1.7924784e-2,-48.681883,-107.55245)"
           d="M 648,629 A 5,4 0 1 1 638,629 A 5,4 0 1 1 648,629 z"
           sodipodi:ry="4"
           sodipodi:rx="5"
           sodipodi:cy="629"
           sodipodi:cx="643"
           id="path6153"
           style="fill:#fcef3c;fill-opacity:1;fill-rule:evenodd;stroke:#000000;stroke-width:1;stroke-miterlimit:4;stroke-dasharray:none;stroke-opacity:1"
           sodipodi:type="arc" />
        <path
           sodipodi:type="arc"
           style="fill:#fcef3c;fill-opacity:1;fill-rule:evenodd;stroke:#000000;stroke-width:1;stroke-miterlimit:4;stroke-dasharray:none;stroke-opacity:1"
           id="path6151"
           sodipodi:cx="643"
           sodipodi:cy="629"
           sodipodi:rx="5"
           sodipodi:ry="4"
           d="M 648,629 A 5,4 0 1 1 638,629 A 5,4 0 1 1 648,629 z"
           transform="matrix(-1.0531972,0.3174518,0.3174518,1.0531972,1117.7984,-275.36976)" />
        <path
           transform="matrix(1.0531972,0.3174518,-0.3174518,1.0531972,184.73737,-275.99529)"
           d="M 648,629 A 5,4 0 1 1 638,629 A 5,4 0 1 1 648,629 z"
           sodipodi:ry="4"
           sodipodi:rx="5"
           sodipodi:cy="629"
           sodipodi:cx="643"
           id="path6149"
           style="fill:#fcef3c;fill-opacity:1;fill-rule:evenodd;stroke:#000000;stroke-width:1;stroke-miterlimit:4;stroke-dasharray:none;stroke-opacity:1"
           sodipodi:type="arc" />
        <path
           sodipodi:type="arc"
           style="fill:#fcef3c;fill-opacity:1;fill-rule:evenodd;stroke:#000000;stroke-width:1;stroke-miterlimit:4;stroke-dasharray:none;stroke-opacity:1"
           id="path6155"
           sodipodi:cx="643"
           sodipodi:cy="629"
           sodipodi:rx="5"
           sodipodi:ry="4"
           d="M 648,629 A 5,4 0 1 1 638,629 A 5,4 0 1 1 648,629 z"
           transform="matrix(-1.7924784e-2,1.0998539,1.0998539,1.7924784e-2,-5.3720909,-111.98148)" />
        <path
           style="fill:#fcef3c;fill-opacity:1;fill-rule:evenodd;stroke:#000000;stroke-width:1;stroke-miterlimit:4;stroke-dasharray:none;stroke-opacity:1"
           d="M 747,709 L 670,626 C 673,619 678.81088,591 651,591 C 642.02392,591 634.79213,598.07869 634,606 C 633,616 638.01633,625.63498 645,626 C 652.75348,626.40525 656,623 655,618 C 654.35692,614.78459 651,611 646,614 C 639.49933,591.58292 679.7698,605.56876 654,630 L 664,635 L 738,717 L 747,709 z"
           id="path6141"
           sodipodi:nodetypes="ccssssccccc" />
        <rect
           style="fill:#fcef3c;fill-opacity:1;fill-rule:evenodd;stroke:#000000;stroke-width:1;stroke-miterlimit:4;stroke-dasharray:none;stroke-opacity:1"
           id="rect6143"
           width="20"
           height="10"
           x="-18.045296"
           y="916.26471"
           ry="5"
           rx="10"
           transform="matrix(0.6809994,-0.732284,0.732284,0.6809994,0,0)" />
        <rect
           style="fill:#fcef3c;fill-opacity:1;fill-rule:evenodd;stroke:#000000;stroke-width:1;stroke-miterlimit:4;stroke-dasharray:none;stroke-opacity:1"
           id="rect6145"
           width="20"
           height="15"
           x="68.321465"
           y="1023.7896"
           rx="7.6431651"
           ry="7.5"
           transform="matrix(0.745774,-0.666199,0.666199,0.745774,0,0)" />
      </g>
      <g
         transform="translate(1.4107,0)"
         id="g6195">
        <path
           sodipodi:type="arc"
           style="fill:#fcef3c;fill-opacity:1;fill-rule:evenodd;stroke:#000000;stroke-width:1;stroke-miterlimit:4;stroke-dasharray:none;stroke-opacity:1"
           id="path6177"
           sodipodi:cx="643"
           sodipodi:cy="629"
           sodipodi:rx="5"
           sodipodi:ry="4"
           d="M 648,629 A 5,4 0 1 1 638,629 A 5,4 0 1 1 648,629 z"
           transform="matrix(-1.0531972,0.3174518,0.3174518,1.0531972,1208.8519,-275.99529)" />
        <path
           transform="matrix(1.7924784e-2,1.0998539,-1.0998539,1.7924784e-2,1398.9614,-111.98148)"
           d="M 648,629 A 5,4 0 1 1 638,629 A 5,4 0 1 1 648,629 z"
           sodipodi:ry="4"
           sodipodi:rx="5"
           sodipodi:cy="629"
           sodipodi:cx="643"
           id="path6183"
           style="fill:#fcef3c;fill-opacity:1;fill-rule:evenodd;stroke:#000000;stroke-width:1;stroke-miterlimit:4;stroke-dasharray:none;stroke-opacity:1"
           sodipodi:type="arc" />
        <path
           transform="matrix(1.0531972,0.3174518,-0.3174518,1.0531972,275.7909,-275.36976)"
           d="M 648,629 A 5,4 0 1 1 638,629 A 5,4 0 1 1 648,629 z"
           sodipodi:ry="4"
           sodipodi:rx="5"
           sodipodi:cy="629"
           sodipodi:cx="643"
           id="path6179"
           style="fill:#fcef3c;fill-opacity:1;fill-rule:evenodd;stroke:#000000;stroke-width:1;stroke-miterlimit:4;stroke-dasharray:none;stroke-opacity:1"
           sodipodi:type="arc" />
        <path
           sodipodi:type="arc"
           style="fill:#fcef3c;fill-opacity:1;fill-rule:evenodd;stroke:#000000;stroke-width:1;stroke-miterlimit:4;stroke-dasharray:none;stroke-opacity:1"
           id="path6181"
           sodipodi:cx="643"
           sodipodi:cy="629"
           sodipodi:rx="5"
           sodipodi:ry="4"
           d="M 648,629 A 5,4 0 1 1 638,629 A 5,4 0 1 1 648,629 z"
           transform="matrix(1.7924784e-2,1.0998539,-1.0998539,1.7924784e-2,1442.2712,-107.55245)" />
        <path
           transform="matrix(-1.0531972,0.3174518,0.3174518,1.0531972,1229.3839,-238.16981)"
           d="M 648,629 A 5,4 0 1 1 638,629 A 5,4 0 1 1 648,629 z"
           sodipodi:ry="4"
           sodipodi:rx="5"
           sodipodi:cy="629"
           sodipodi:cx="643"
           id="path6175"
           style="fill:#fcef3c;fill-opacity:1;fill-rule:evenodd;stroke:#000000;stroke-width:1;stroke-miterlimit:4;stroke-dasharray:none;stroke-opacity:1"
           sodipodi:type="arc" />
        <path
           sodipodi:nodetypes="ccssssccccc"
           id="path6169"
           d="M 646.5893,709 L 723.5893,626 C 720.5893,619 714.77842,591 742.5893,591 C 751.56538,591 758.79717,598.07869 759.5893,606 C 760.5893,616 755.57297,625.63498 748.5893,626 C 740.83582,626.40525 737.5893,623 738.5893,618 C 739.23238,614.78459 742.5893,611 747.5893,614 C 754.08997,591.58292 713.8195,605.56876 739.5893,630 L 729.5893,635 L 655.5893,717 L 646.5893,709 z"
           style="fill:#fcef3c;fill-opacity:1;fill-rule:evenodd;stroke:#000000;stroke-width:1;stroke-miterlimit:4;stroke-dasharray:none;stroke-opacity:1" />
        <rect
           transform="matrix(-0.6809994,-0.732284,-0.732284,0.6809994,0,0)"
           rx="10"
           ry="5"
           y="-104.2384"
           x="-967.07874"
           height="10"
           width="20"
           id="rect6171"
           style="fill:#fcef3c;fill-opacity:1;fill-rule:evenodd;stroke:#000000;stroke-width:1;stroke-miterlimit:4;stroke-dasharray:none;stroke-opacity:1" />
        <rect
           transform="matrix(-0.745774,-0.666199,-0.666199,0.745774,0,0)"
           ry="7.5"
           rx="6.9120703"
           y="95.381783"
           x="-970.9812"
           height="15"
           width="20"
           id="rect6173"
           style="fill:#fcef3c;fill-opacity:1;fill-rule:evenodd;stroke:#000000;stroke-width:1;stroke-miterlimit:4;stroke-dasharray:none;stroke-opacity:1" />
      </g>
      <path
         sodipodi:nodetypes="ccccccccccccccccc"
         id="path6185"
         d="M 715,743 L 710,673 L 765,678 L 750,663 L 765,648 L 710,653 L 715,583 L 697.5,603 L 680,583 L 685,653 L 630,648 L 640,663 L 630,678 L 685,673 L 680,743 L 697.5,728 L 715,743 z"
         style="opacity:1;fill:#ffffff;fill-opacity:1;fill-rule:evenodd;stroke:#000000;stroke-width:1;stroke-miterlimit:4;stroke-dasharray:none;stroke-opacity:1" />
    </g>
  </g>
  <g
     inkscape:groupmode="layer"
     id="layer3"
     inkscape:label="Reflet final"
     style="display:inline"
     sodipodi:insensitive="true">
    <path
       style="fill:url(#radialGradient3236);fill-opacity:1"
       d="M 1.5,1.5 L 1.5,460.3679 C 1.5,626.67854 135.81454,761.5 301.49993,761.5 C 467.1854,761.5 601.5,626.67854 601.5,460.3679 L 601.5,1.5 L 1.5,1.5 z "
       id="path2346" />
  </g>
  <g
     inkscape:groupmode="layer"
     id="layer4"
     inkscape:label="Contour final"
     style="display:inline"
     sodipodi:insensitive="true">
    <path
       style="fill:none;fill-opacity:1;stroke:#000000;stroke-width:3;stroke-miterlimit:4;stroke-dasharray:none;stroke-opacity:1"
       d="M 1.5,1.5 L 1.5,460.36794 C 1.5,626.67854 135.81454,761.5 301.49993,761.5 C 467.1854,761.5 601.5,626.67854 601.5,460.36794 L 601.5,1.5 L 1.5,1.5 z"
       id="path3239" />
  </g>
</svg>

<?xml version="1.0" encoding="UTF-8"?>
<svg version="1.0" viewBox="0 0 603 763" xmlns="http://www.w3.org/2000/svg" xmlns:cc="http://creativecommons.org/ns#" xmlns:dc="http://purl.org/dc/elements/1.1/" xmlns:rdf="http://www.w3.org/1999/02/22-rdf-syntax-ns#" xmlns:xlink="http://www.w3.org/1999/xlink">
<metadata>
<rdf:RDF>
<cc:Work rdf:about="">
<dc:format>image/svg+xml</dc:format>
<dc:type rdf:resource="http://purl.org/dc/dcmitype/StillImage"/>
<dc:date>06-AUG-2009</dc:date>
<dc:creator>
<cc:Agent>
<dc:title>Juan G (aliman5040)</dc:title>
</cc:Agent>
</dc:creator>
<cc:license rdf:resource="http://creativecommons.org/licenses/GPL/2.0/"/>
<dc:coverage/>
<dc:description/>
<dc:subject>
<rdf:Bag/>
</dc:subject>
<dc:language/>
<dc:title>Wappen Gemeinde Frauenkappelen</dc:title>
</cc:Work>
<cc:License rdf:about="http://creativecommons.org/licenses/GPL/2.0/">
<cc:permits rdf:resource="http://web.resource.org/cc/Reproduction"/>
<cc:permits rdf:resource="http://web.resource.org/cc/Distribution"/>
<cc:requires rdf:resource="http://web.resource.org/cc/Notice"/>
<cc:permits rdf:resource="http://web.resource.org/cc/DerivativeWorks"/>
<cc:requires rdf:resource="http://web.resource.org/cc/ShareAlike"/>
<cc:requires rdf:resource="http://web.resource.org/cc/SourceCode"/>
</cc:License>
</rdf:RDF>
</metadata>
<defs>
<radialGradient id="a" cx="858.04" cy="579.93" r="300" gradientTransform="matrix(1.215 1.5316e-24 1.4647e-23 1.2667 -839.19 -490.49)" gradientUnits="userSpaceOnUse">
<stop stop-color="#fff" stop-opacity=".31373" offset="0"/>
<stop stop-color="#fff" stop-opacity=".25098" offset=".19"/>
<stop stop-color="#6b6b6b" stop-opacity=".12549" offset=".6"/>
<stop stop-opacity=".12549" offset="1"/>
</radialGradient>
</defs>
<g>
<path d="m1.5 1.5v458.87c0 166.31 134.31 301.13 300 301.13 165.69 0 300-134.82 300-301.13v-458.87h-600z" fill="#2b5df2"/>
<g transform="matrix(4.0932 0 0 4.0932 -2553.5 -2332.3)" fill-rule="evenodd" stroke="#000">
<g fill="#fcef3c">
<path transform="matrix(1.0532 .31745 -.31745 1.0532 164.21 -238.17)" d="m648 629a5 4 0 1 1-10 0 5 4 0 1 1 10 0z"/>
<path transform="matrix(-.017925 1.0999 1.0999 .017925 -48.682 -107.55)" d="m648 629a5 4 0 1 1-10 0 5 4 0 1 1 10 0z"/>
<path transform="matrix(-1.0532 .31745 .31745 1.0532 1117.8 -275.37)" d="m648 629a5 4 0 1 1-10 0 5 4 0 1 1 10 0z"/>
<path transform="matrix(1.0532 .31745 -.31745 1.0532 184.74 -276)" d="m648 629a5 4 0 1 1-10 0 5 4 0 1 1 10 0z"/>
<path transform="matrix(-.017925 1.0999 1.0999 .017925 -5.3721 -111.98)" d="m648 629a5 4 0 1 1-10 0 5 4 0 1 1 10 0z"/>
<path d="m747 709-77-83c3-7 8.8109-35-19-35-8.9761 0-16.208 7.0787-17 15-1 10 4.0163 19.635 11 20 7.7535 0.40525 11-3 10-8-0.64308-3.2154-4-7-9-4-6.5007-22.417 33.77-8.4312 8 16l10 5 74 82 9-8z"/>
<rect transform="matrix(.681 -.73228 .73228 .681 0 0)" x="-18.045" y="916.26" width="20" height="10" rx="10" ry="5"/>
<rect transform="matrix(.74577 -.6662 .6662 .74577 0 0)" x="68.321" y="1023.8" width="20" height="15" rx="7.6432" ry="7.5"/>
</g>
<g transform="translate(1.4107)" fill="#fcef3c">
<path transform="matrix(-1.0532 .31745 .31745 1.0532 1208.9 -276)" d="m648 629a5 4 0 1 1-10 0 5 4 0 1 1 10 0z"/>
<path transform="matrix(.017925 1.0999 -1.0999 .017925 1399 -111.98)" d="m648 629a5 4 0 1 1-10 0 5 4 0 1 1 10 0z"/>
<path transform="matrix(1.0532 .31745 -.31745 1.0532 275.79 -275.37)" d="m648 629a5 4 0 1 1-10 0 5 4 0 1 1 10 0z"/>
<path transform="matrix(.017925 1.0999 -1.0999 .017925 1442.3 -107.55)" d="m648 629a5 4 0 1 1-10 0 5 4 0 1 1 10 0z"/>
<path transform="matrix(-1.0532 .31745 .31745 1.0532 1229.4 -238.17)" d="m648 629a5 4 0 1 1-10 0 5 4 0 1 1 10 0z"/>
<path d="m646.59 709 77-83c-3-7-8.8109-35 19-35 8.9761 0 16.208 7.0787 17 15 1 10-4.0163 19.635-11 20-7.7535 0.40525-11-3-10-8 0.64308-3.2154 4-7 9-4 6.5007-22.417-33.77-8.4312-8 16l-10 5-74 82-9-8z"/>
<rect transform="matrix(-.681 -.73228 -.73228 .681 0 0)" x="-967.08" y="-104.24" width="20" height="10" rx="10" ry="5"/>
<rect transform="matrix(-.74577 -.6662 -.6662 .74577 0 0)" x="-970.98" y="95.382" width="20" height="15" rx="6.9121" ry="7.5"/>
</g>
<path d="m715 743-5-70 55 5-15-15 15-15-55 5 5-70-17.5 20-17.5-20 5 70-55-5 10 15-10 15 55-5-5 70 17.5-15 17.5 15z" fill="#fff"/>
</g>
<path d="m1.5 1.5v458.87c0 166.31 134.31 301.13 300 301.13 165.69 0 300-134.82 300-301.13v-458.87h-600z" fill="url(#a)"/>
<path d="m1.5 1.5v458.87c0 166.31 134.31 301.13 300 301.13 165.69 0 300-134.82 300-301.13v-458.87h-600z" fill="none" stroke="#000" stroke-width="3"/>
</g>
</svg>
